X: 20722
T: BLACK'S QUICKSTEP
C:
%R: reel, march, quickstep
B: Elias Howe "The Musician's Companion" 1843 p.72 #2
S: http://imslp.org/wiki/The_Musician's_Companion_(Howe,_Elias)
Z: 2015 John Chambers <jc:trillian.mit.edu>
M: 2/4
L: 1/16
K: F
% - - - - - - - - - - - - - - - - - - - - - - - - -
AB |\
c2AB c2f2 | d4 B2 ba | g2gec2c'2 | abga f2AB |\
c2AB c2f2 | d4 b2 ba | gfed cBAG | F2Acf2 :|
|: c2 |\
bg^fg cegb | afef Acfg | bg^fg cegb | afef Acfa |\
deba gfed | cfed fedc | debg afge | f2a2f2 :|
% - - - - - - - - - - - - - - - - - - - - - - - - -

% (Continued from previous page)

%%sep 1 1 500

